static/images/icons/linkedin.svg

<svg fill="none" height="42" viewBox="0 0 42 42" width="42" xmlns="http://www.w3.org/2000/svg"><path d="m9.5 11.147c0-.91.756-1.647 1.69-1.647h19.62c.934 0 1.69.737 1.69 1.647v19.706c0 .91-.756 1.647-1.69 1.647h-19.62c-.934 0-1.69-.737-1.69-1.647zm7.106 17.607v-10.386h-3.452v10.386zm-1.726-11.805c1.203 0 1.952-.796 1.952-1.794-.022-1.02-.748-1.794-1.93-1.794-1.181 0-1.953.776-1.953 1.794 0 .998.749 1.794 1.908 1.794zm7.055 11.805v-5.8c0-.31.023-.621.115-.843.249-.62.816-1.262 1.77-1.262 1.25 0 1.749.952 1.749 2.349v5.556h3.451v-5.957c0-3.191-1.702-4.675-3.973-4.675-1.831 0-2.652 1.006-3.112 1.715v.036h-.023l.023-.036v-1.47h-3.45c.043.976 0 10.387 0 10.387z" fill="#fff"/></svg>

<svg width="42" height="42" viewBox="0 0 42 42" fill="none" xmlns="http://www.w3.org/2000/svg">
<path d="M9.5 11.147C9.5 10.237 10.256 9.5 11.19 9.5H30.81C31.744 9.5 32.5 10.237 32.5 11.147V30.853C32.5 31.763 31.744 32.5 30.81 32.5H11.19C10.256 32.5 9.5 31.763 9.5 30.853V11.147ZM16.606 28.754V18.368H13.154V28.754H16.606ZM14.88 16.949C16.083 16.949 16.832 16.153 16.832 15.155C16.81 14.135 16.084 13.361 14.902 13.361C13.721 13.361 12.949 14.137 12.949 15.155C12.949 16.153 13.698 16.949 14.857 16.949H14.88ZM21.935 28.754V22.954C21.935 22.644 21.958 22.333 22.05 22.111C22.299 21.491 22.866 20.849 23.82 20.849C25.07 20.849 25.569 21.801 25.569 23.198V28.754H29.02V22.797C29.02 19.606 27.318 18.122 25.047 18.122C23.216 18.122 22.395 19.128 21.935 19.837V19.873H21.912L21.935 19.837V18.367H18.485C18.528 19.343 18.485 28.754 18.485 28.754H21.935Z" fill="white"/>
</svg>
